icon/lg/planless.svg

<?xml version="1.0" encoding="UTF-8"?>
<svg viewBox="0 0 512 129" version="1.1" xmlns="http://www.w3.org/2000/svg" preserveAspectRatio="xMidYMid" height="1em" width="1em">
  <g>
    <path d="M176.773912,38.8051479 L176.25397,38.791761 L176.25397,38.791761 L157.430805,38.7898486 C156.715079,38.7898486 156.142761,39.3729962 156.142761,40.1018486 L156.142761,87.7676795 C156.142761,88.4965319 156.715079,89.0796795 157.430805,89.0796795 L164.014104,89.0796795 C164.72983,89.0796795 165.302477,88.4965319 165.302477,87.7676795 L165.302477,77.4183693 L176.567389,77.416027 L176.567389,77.416027 L177.179513,77.3929233 L177.179513,77.3929233 L177.939156,77.3355591 C180.696154,77.074309 185.596668,76.0480218 189.489481,72.3164025 C193.067454,68.8181736 194.784736,64.1536495 194.784736,58.1771255 C194.784736,52.2006014 192.924374,47.3903725 189.489481,44.0375202 C186.274305,40.8514339 182.426222,39.5997571 179.610601,39.108027 L178.662435,38.9641176 C178.512456,38.9447544 178.366728,38.9275426 178.225589,38.9122433 L177.436542,38.8414839 L177.436542,38.8414839 L176.773912,38.8051479 L176.773912,38.8051479 Z M183.048933,65.4653213 C181.710778,66.8282031 179.766583,67.4414999 178.287783,67.7174834 L177.53376,67.8370453 L177.53376,67.8370453 L176.910686,67.9045699 L176.910686,67.9045699 L176.179475,67.9432881 L176.179475,67.9432881 L165.302477,67.9432881 L165.302477,48.1188968 L176.290074,48.1184758 L176.290074,48.1184758 L176.979353,48.1512118 L176.979353,48.1512118 L177.627716,48.2166408 C179.167375,48.4098362 181.508843,48.9728109 183.192341,50.5971918 C184.766544,52.2006014 185.625349,54.6785683 185.625349,58.0310925 C185.625349,61.3839447 184.766544,63.8619116 183.048933,65.4653213 Z M231.709429,79.7506313 L212.388442,79.7506313 L212.388442,40.1018486 C212.388442,39.3729962 211.815795,38.7898486 211.100398,38.7898486 L204.51677,38.7898486 C203.801372,38.7898486 203.228726,39.3729962 203.228726,40.1018486 L203.228726,87.7676795 C203.228726,88.4965319 203.801372,89.0796795 204.51677,89.0796795 L231.852509,89.0796795 C232.711314,89.0796795 233.426712,88.4965319 233.426712,87.7676795 L233.426712,81.0626313 C233.426712,80.3337789 232.711314,79.7506313 231.709429,79.7506313 Z M340.335674,38.7898486 L333.752703,38.7898486 C333.037305,38.7898486 332.4663,39.3729962 332.4663,40.1018486 L332.4663,71.0044026 L308.993708,39.2272913 C308.707549,38.9355535 308.42139,38.7898486 308.134903,38.7898486 L301.551604,38.7898486 C300.835878,38.7898486 300.26356,39.3729962 300.26356,40.1018486 L300.26356,87.7676795 C300.26356,88.4965319 300.835878,89.0796795 301.551604,89.0796795 L308.134903,89.0796795 C308.850629,89.0796795 309.422947,88.4965319 309.422947,87.7676795 L309.422947,57.5939779 L332.896195,88.4965319 L333.037305,88.6425649 C333.181697,88.7882698 333.4672,88.9339746 333.752703,88.9339746 L340.480066,88.9339746 C341.195464,88.9339746 341.766469,88.3508271 341.766469,87.6219747 L341.766469,40.1018486 C341.625359,39.3729962 341.051072,38.7898486 340.335674,38.7898486 Z M382.557263,79.7506313 L363.234963,79.7506313 L363.234963,40.1018486 C363.234963,39.3729962 362.663957,38.7898486 361.94856,38.7898486 L355.365588,38.7898486 C354.650191,38.7898486 354.075904,39.3729962 354.075904,40.1018486 L354.075904,87.7676795 C354.075904,88.4965319 354.650191,89.0796795 355.365588,89.0796795 L382.698374,89.0796795 C383.558163,89.0796795 384.273561,88.4965319 384.273561,87.7676795 L384.273561,81.0626313 C384.132451,80.3337789 383.417053,79.7506313 382.557263,79.7506313 Z M457.693708,39.0815865 C450.395339,38.0609962 442.952578,40.5392913 439.37559,45.2038153 C436.513999,48.8477492 435.939712,53.6583062 437.944795,58.4685352 C439.933754,63.6655126 444.848275,66.1069044 448.826016,67.422014 L449.987373,67.7843877 C450.174961,67.839695 450.359241,67.8925939 450.539732,67.9432881 L454.25783,68.9638784 C456.692808,69.6927308 459.698791,70.8586977 460.555299,72.8995501 C461.415089,75.0861073 460.844083,76.2520742 460.414188,76.8352218 C458.79576,78.8931579 455.026211,80.0473325 451.24777,79.689823 L450.539732,79.6049265 C449.349253,79.4704297 446.8194,78.8390498 445.08474,77.1375246 L444.668876,76.6895169 C444.161316,76.0416481 443.42558,75.7394131 442.666796,75.9872476 L437.370507,78.1472217 C436.225215,78.5843362 435.79532,80.042041 436.369607,81.0626313 C438.801303,85.2897127 443.382473,88.0594174 449.105655,88.9339746 C450.250947,89.0796795 451.39624,89.2253843 452.541532,89.2253843 C458.694609,89.2253843 464.421072,86.8931223 467.568165,82.8117458 C470.433037,79.1674838 471.004043,74.3572549 468.99896,69.547026 C466.711657,63.8619116 461.129586,61.3839447 456.833918,60.2176496 L456.673528,60.1447972 C456.584514,60.108371 456.47786,60.0719448 456.407305,60.0719448 L452.541532,58.9059779 C450.109837,58.1771255 447.103854,57.0108304 446.244064,54.969978 C445.384274,52.783749 445.958561,51.6174539 446.388456,51.0343063 C448.104754,48.8477492 452.25603,47.6817822 456.262913,48.2649298 C457.549316,48.4106346 460.555299,49.139487 462.130486,51.3260442 C462.704774,52.0548966 463.561282,52.2006014 464.276679,51.9088636 L469.428855,49.8683394 C470.574148,49.4308967 471.004043,48.1188968 470.288645,47.0986347 C467.99806,42.7255203 463.420171,39.8104389 457.693708,39.0815865 Z M497.624712,48.2649298 C498.911115,48.4106346 501.917098,49.139487 503.492286,51.3260442 C504.063291,52.0548966 504.923081,52.2006014 505.638479,51.9088636 L510.790655,49.8683394 C511.840506,49.4673503 512.289225,48.3314901 511.805682,47.3591031 L511.650444,47.0986347 C509.215467,42.8715533 504.637578,39.9561437 498.911115,39.0815865 C491.612746,38.0609962 484.169985,40.5392913 480.592997,45.2038153 C477.731406,48.8477492 477.157119,53.6583062 479.162202,58.4685352 C481.154015,63.6655126 486.066426,66.1069044 490.043569,67.422014 L491.204797,67.7843877 C491.392374,67.839695 491.576648,67.8925939 491.757139,67.9432881 L495.478519,68.9638784 C497.910215,69.6927308 500.916198,70.8586977 501.775988,72.8995501 C502.632496,75.0861073 502.06149,76.2520742 501.631595,76.8352218 C500.016256,78.8931579 496.243982,80.0473325 492.465209,79.689823 L491.757139,79.6049265 C490.56666,79.4704297 488.036807,78.8390498 486.304728,77.1375246 L485.889565,76.6895169 C485.379088,76.0416481 484.645621,75.7394131 483.885072,75.9872476 L478.587914,78.1472217 C477.445904,78.5843362 477.016009,80.042041 477.587014,81.0626313 C480.021991,85.2897127 484.59988,88.0594174 490.326343,88.9339746 C491.471636,89.0796795 492.613647,89.2253843 493.758939,89.2253843 C499.915297,89.2253843 505.638479,86.8931223 508.788854,82.8117458 C511.650444,79.1674838 512.22145,74.3572549 510.219649,69.547026 C507.929064,63.8619116 502.346993,61.3839447 498.054607,60.2176496 L497.624712,60.2176496 L497.624712,60.2176496 L493.230063,58.8886453 L493.230063,58.8886453 L492.143364,58.5185769 C490.137515,57.7828464 488.13702,56.71928 487.461471,55.116011 C486.736733,53.2658473 487.034061,52.146167 487.403142,51.4921548 L487.605863,51.1800112 L487.605863,51.1800112 C489.466553,48.8477492 493.617829,47.6817822 497.624712,48.2649298 Z M271.21021,39.6644059 C270.971744,39.178723 270.633917,38.8951802 270.19654,38.8141571 L269.858337,38.7898486 L269.858337,38.7898486 L262.480061,38.7898486 C261.907743,38.7898486 261.478176,39.0815865 261.192017,39.6644059 L240.439906,87.1848601 C240.010339,88.2051222 240.726065,89.2253843 241.72795,89.2253843 L248.883896,89.2253843 C249.456214,89.2253843 249.885781,88.9339746 250.17194,88.3508271 L254.60839,78.2929265 L277.793838,78.2929265 L282.230616,88.3508271 C282.516775,88.9339746 282.946013,89.2253843 283.51866,89.2253843 L290.674605,89.2253843 C291.676162,89.2253843 292.391888,88.2051222 291.962649,87.1848601 L271.21021,39.6644059 Z M258.759009,68.8181736 L266.201114,51.6174539 L273.643218,68.8181736 L258.759009,68.8181736 Z M426.49515,38.6441438 L394.577913,38.6441438 C393.721405,38.6441438 393.147118,39.3729962 393.147118,40.1018486 L393.147118,87.4762698 C393.147118,88.3508271 393.862515,88.9339746 394.577913,88.9339746 L426.49515,88.9339746 C427.351658,88.9339746 427.925946,88.2051222 427.925946,87.4762698 L427.925946,81.0626313 C427.925946,80.1877459 427.210548,79.6049265 426.49515,79.6049265 L402.306177,79.6049265 L402.306177,68.6721405 L419.052389,68.6721405 C419.912179,68.6721405 420.483184,67.9432881 420.483184,67.2144358 L420.483184,60.8007972 C420.483184,59.9262399 419.767787,59.3430924 419.052389,59.3430924 L402.306177,59.3430924 L402.306177,48.1188968 L426.49515,48.1188968 C427.351658,48.1188968 427.925946,47.3900444 427.925946,46.661192 L427.925946,40.2475534 C427.925946,39.3729962 427.351658,38.6441438 426.49515,38.6441438 Z" fill="#1C1C1C"/>
    <path d="M54.528398,73.7741073 L94.3153378,90.3916794 L5.00916198,127.416462 C1.58675317,128.810789 0.128509422,127.804629 0.0081751989,124.270182 L0,123.772528 L0,98.1173179 C0,96.6596728 0.827960657,95.3224449 2.05377007,94.6532318 L2.43301825,94.473056 L54.528398,73.7741073 Z M110.201432,46.9526017 L110.201432,80.9162701 L69.9849256,65.1735834 C69.4126075,65.0278786 69.1264484,64.444731 69.1264484,64.0072883 C69.1264484,63.6430262 69.32517,63.1773523 69.7226131,62.9479261 L110.201432,46.9526017 Z M0,4.24848014 C0,0.483860585 1.30944337,-0.746762062 4.55458563,0.429037115 L5.00916198,0.604277223 L94.3153378,37.7751653 L54.528398,54.2467044 L2.43301825,33.6934606 C1.1319402,33.1633265 0.18569972,31.9105534 0.0244087078,30.3729482 L0,29.9035594 L0,4.24848014 Z" fill="#FF6254"/>
  </g>
</svg>

<svg width="512" height="129" xmlns="http://www.w3.org/2000/svg" preserveAspectRatio="xMidYMid"><path d="m176.774 38.805-.52-.013-18.823-.002c-.716 0-1.288.583-1.288 1.312v47.666c0 .729.572 1.312 1.288 1.312h6.583c.716 0 1.288-.583 1.288-1.312v-10.35l11.265-.002.613-.023.76-.057c2.756-.262 7.657-1.288 11.55-5.02 3.577-3.498 5.295-8.162 5.295-14.139 0-5.976-1.86-10.787-5.296-14.14-3.215-3.186-7.063-4.437-9.878-4.929l-.949-.144c-.15-.02-.295-.036-.436-.052l-.79-.07-.662-.037Zm6.275 26.66c-1.338 1.363-3.282 1.976-4.761 2.252l-.754.12-.623.068-.732.038h-10.877V48.12h10.988l.69.032.648.066c1.54.193 3.88.756 5.564 2.38 1.575 1.604 2.433 4.082 2.433 7.434 0 3.353-.858 5.83-2.576 7.434Zm48.66 14.286h-19.32V40.1c0-.728-.573-1.311-1.289-1.311h-6.583c-.716 0-1.288.583-1.288 1.312v47.666c0 .729.572 1.312 1.288 1.312h27.336c.858 0 1.574-.583 1.574-1.312v-6.705c0-.73-.716-1.312-1.718-1.312ZM340.336 38.79h-6.583c-.716 0-1.287.583-1.287 1.312v30.902l-23.472-31.777c-.286-.291-.573-.437-.86-.437h-6.582c-.716 0-1.288.583-1.288 1.312v47.666c0 .729.572 1.312 1.288 1.312h6.583c.716 0 1.288-.583 1.288-1.312V57.594l23.473 30.903.141.146c.145.145.43.291.716.291h6.727c.715 0 1.286-.583 1.286-1.312v-47.52c-.14-.729-.715-1.312-1.43-1.312Zm42.221 40.96h-19.322V40.103c0-.729-.571-1.312-1.286-1.312h-6.583c-.716 0-1.29.583-1.29 1.312v47.666c0 .729.574 1.312 1.29 1.312h27.332c.86 0 1.576-.583 1.576-1.312v-6.705c-.142-.73-.857-1.312-1.717-1.312Zm75.137-40.668c-7.299-1.021-14.741 1.457-18.318 6.122-2.862 3.644-3.436 8.454-1.431 13.265 1.989 5.197 6.903 7.638 10.881 8.953l1.161.362c.188.056.372.109.553.16l3.718 1.02c2.435.729 5.44 1.895 6.297 3.936.86 2.186.29 3.352-.14 3.935-1.62 2.058-5.389 3.212-9.167 2.855l-.708-.085c-1.19-.135-3.72-.766-5.455-2.467l-.416-.448c-.508-.648-1.243-.95-2.002-.703l-5.296 2.16c-1.146.437-1.576 1.895-1.001 2.916 2.431 4.227 7.012 6.996 12.736 7.871 1.145.146 2.29.291 3.436.291 6.153 0 11.88-2.332 15.026-6.413 2.865-3.645 3.436-8.455 1.431-13.265-2.287-5.685-7.87-8.163-12.165-9.33l-.16-.072a.84.84 0 0 0-.267-.073l-3.865-1.166c-2.432-.729-5.438-1.895-6.298-3.936-.86-2.186-.285-3.353.144-3.936 1.717-2.186 5.868-3.352 9.875-2.77 1.286.147 4.292.875 5.867 3.062.575.729 1.431.875 2.147.583l5.152-2.04c1.145-.438 1.575-1.75.86-2.77-2.29-4.373-6.869-7.289-12.595-8.017Zm39.93 9.183c1.287.146 4.293.874 5.868 3.061.571.729 1.431.875 2.146.583l5.153-2.04c1.05-.402 1.498-1.538 1.015-2.51l-.156-.26c-2.435-4.227-7.012-7.143-12.739-8.017-7.298-1.021-14.741 1.457-18.318 6.122-2.862 3.644-3.436 8.454-1.43 13.265 1.991 5.197 6.903 7.638 10.88 8.953l1.162.362c.187.056.372.109.552.16l3.722 1.02c2.431.729 5.437 1.895 6.297 3.936.856 2.186.285 3.352-.144 3.935-1.616 2.058-5.388 3.212-9.167 2.855l-.708-.085c-1.19-.135-3.72-.766-5.452-2.467l-.415-.448c-.51-.648-1.244-.95-2.005-.703l-5.297 2.16c-1.142.437-1.572 1.895-1.001 2.916 2.435 4.227 7.013 6.996 12.74 7.871 1.145.146 2.287.291 3.432.291 6.156 0 11.88-2.332 15.03-6.413 2.861-3.645 3.432-8.455 1.43-13.265-2.29-5.685-7.872-8.163-12.164-9.33h-.43l-4.395-1.328-1.087-.37c-2.005-.736-4.006-1.8-4.682-3.403-.724-1.85-.427-2.97-.058-3.624l.203-.312c1.86-2.332 6.012-3.498 10.019-2.915Zm-226.414-8.6c-.238-.486-.576-.77-1.013-.85l-.339-.025h-7.378c-.572 0-1.002.292-1.288.874l-20.752 47.52c-.43 1.021.286 2.041 1.288 2.041h7.156c.572 0 1.002-.291 1.288-.874l4.436-10.058h23.186l4.437 10.058c.286.583.715.874 1.288.874h7.156c1.001 0 1.717-1.02 1.288-2.04l-20.753-47.52ZM258.76 68.817l7.442-17.2 7.442 17.2H258.76Zm167.736-30.174h-31.917c-.857 0-1.43.729-1.43 1.458v47.374c0 .875.715 1.458 1.43 1.458h31.917c.857 0 1.43-.729 1.43-1.458v-6.413c0-.875-.714-1.458-1.43-1.458h-24.189V68.672h16.746c.86 0 1.431-.729 1.431-1.458v-6.413c0-.875-.715-1.458-1.43-1.458h-16.747V48.12h24.19c.856 0 1.43-.729 1.43-1.458v-6.413c0-.875-.574-1.604-1.43-1.604Z" fill="#1C1C1C"/><path d="m54.528 73.774 39.787 16.618L5.01 127.416c-3.422 1.395-4.88.389-5-3.146L0 123.773V98.117c0-1.457.828-2.795 2.054-3.464l.379-.18 52.095-20.699Zm55.673-26.821v33.963L69.985 65.174c-.572-.146-.859-.73-.859-1.167 0-.364.2-.83.597-1.06L110.2 46.954ZM0 4.248C0 .484 1.31-.747 4.555.43l.454.175 89.306 37.171-39.787 16.472L2.433 33.693c-1.301-.53-2.247-1.782-2.409-3.32L0 29.903V4.249Z" fill="#FF6254"/></svg>
